X:1
T:Englische Suite - No. 2
T:BWV 807 - Prélude
T:Johann Sebastian Bach (1685 - 1750)
%%score { ( 1 4 5 ) | ( 2 3 ) }
L:1/8
Q:1/4=100
M:3/4
K:C
V:1 treble nm="Clavicembalo" snm="Clav."
V:4 treble 
V:5 treble 
V:2 treble 
V:3 treble 
V:1
 z e Aa g/e/f/d/ | e/d/c/B/ c/B/c/f/ B/e/A/d/ | ^G/d/B/G/ d/B/G/B/ E/d/c/B/ | %3
 c/B/A/^G/ A/B/c/F/ B/E/A/B/ | ^GE GB GE | A/g/e/^c/ g/e/c/e/ A/G/^F/E/ | ^Fd ^fa fd | %7
 g/f/d/B/ f/d/B/d/ G/f/e/d/ | e/d/c/B/ A/c/d/^f/ g/B/c/A/ | B/d/e/f/ g/A/^A/G/ g/=A/^A/G/ | %10
 A/c/d/e/ f/G/A/F/ f/G/A/F/ | G/E/G/B/ e/F/G/E/ e/F/G/E/ | F/D/F/A/ d/E/F/D/ d/E/F/D/ | %13
 E/D/C/B,/ C/^G,/A,/E/ D/B,/C/A,/ | B,/D/B,/^G,/ D/B,/G,/B,/ E,/D/C/B,/ | %15
 C/A,/^C/E/ G/E/C/E/ A,/G/F/E/ | F/A,/D/F/ A/^F/^D/F/ B,/A/^G/F/ | ^G/E/G/B/ d/B/G/B/ E/d/c/B/ | %18
 ce Aa g/e/f/d/ | b/a/^g/^f/ g/f/g/b/ e/g/a/c/ | d/f/c/f/ B/f/c/f/ B/f/A/f/ | %21
 ^G/B/e/E/ A/c/e/E/ G/B/d/E/ | c4 F/E/F/c/ | B4 E/D/E/_B/ | A2 F/E/F/A/ ^G/B/A/c/ | %25
 B/c/d/B/ ^G/E/F/D/ E/C/D/B,/ | C/E/A/^G/ A/D/E/C/ D/B,/C/A,/ | ^G,/E/B/A/ B/E/F/D/ E/C/D/B,/ | %28
 C/D/E/B,/ CD CB, |[K:bass] A,/B,/C/^G,/ A,/E,/F,/B,/ E,/A,/D,/G,/ | C,/E,/A,- A,^G, A,/C/B,/D/ | %31
 ^G,/B,/D/F/ D/B,/^G,/B,/ E,/D/C/B,/ |[K:treble] C/E/A- A^G A/c/B/d/ | %33
 ^G/B/d/^e/ d/B/G/B/ E/d/c/B/ | c/e/a- a^g a/c'/b/a/ | ^g/^f/g/b/ a/g/a/c'/ g/f/g/b/ | %36
 ^f/e/f/a/ =f/e/f/b/ e/d/e/a/ | d/c/d/^g/ e/d/e/a/ d/^B/d/g/ | c/B/c/^f/ d/c/d/^g/ c/B/c/f/ | %39
 B/A/B/e/ d/B/c/A/ B/^G/A/^F/ | ^G/^F/G/B/ E/^D/E/G/ =D/C/D/=F/ | B,/A,/B,/D/ z4 | z6 | z6 | z6 | %45
[I:staff +1] F/E/D/C/ B,/A,/^G,/^F,/[I:staff -1] z2 | z e Aa g/e/f/d/ | %47
 e/B/c/^G/ A/c/f/d/ e/c/d/B/ | c/B/c/^G/ A/c/e/c/ d/B/c/A/ | B/A/B/^G/ A/G/A/f/ e/c/d/B/ | %50
 c/B/A/^G/ A/B/c/f/ e/c/d/B/ | c/B/A/^G/ A/B/c/d/ c/A/B/G/ | A/B/c/A/ ^G/A/c/A/ B/G/A/^F/ | %53
 ^G/F/E/D/ C/B,/C/A/ B,/A/B,/G/ | AE E/F/E EE |{E} FD D/E/D DD |{D} EG G/A/G GG |{G} A^F F/G/F FF | %58
{^F} GB Ee d/B/c/A/ | B/A/G/^F/ G/F/G/c/ F/B/E/A/ | ^D/A/^F/D/ A/F/D/F/ B,/A/G/F/ | %61
 GB, B,/C/B, B,B, |{B,} CA, A,/B,/A, A,A, |{A,} B,D D/E/D DD |{D} E^C C/D/C CC | %65
{^C} D/B,/D/^F/ B/D/F/B/ dd | d/E/^G/B/ d/B/G/B/ E/d/c/B/ | c/A,/C/E/ A/C/E/A/ cc | %68
 c/D/^F/A/ c/A/F/A/ E/c/B/A/ | B/^F/G/A/ D/F/G/B/ D/F/G/B/ | c/^F/G/c/ D/F/G/c/ D/F/G/c/ | %71
 d/^F/G/d/ D/F/G/d/ D/F/G/d/ | E/D/E/d/ E/D/E/d/ E/D/E/d/ | E/D/E/c/ E/D/E/c/ E/D/E/c/ | %74
 ^F/E/F/c/ F/E/F/c/ F/E/F/c/ | G/^F/G/B/ G/F/G/B/ G/F/G/B/ | G/^F/G/e/ G/F/G/e/ G/F/G/e/ | %77
 ^F/D/F/A/ d/E/=F/D/ d/E/F/D/ | E/C/E/G/ c/D/E/C/ c/D/E/C/ | Dd d/e/d dd | dc c/d/c cc | %81
 B/A/G/^F/ G/F/G/c/ F/B/E/A/ | ^D/c/B/A/ ^F/c/B/A/ A/c/B/A/ | B,/A/G/^F/ ^D/A/G/F/ F/A/G/F/ | %84
 A,/^F/E/^D/ C/F/E/D/ D/F/E/D/ | A/^F/E/^D/ c/F/E/D/ B/A/G/F/ | GB Ee d/B/c/A/ | %87
 B/^F/G/^D/ E/G/^B/A/ =B/G/A/F/ | G/^F/G/^D/ E/G/B/G/ A/F/G/E/ | ^F/E/F/^D/ E/D/E/c/ B/G/A/F/ | %90
 G/^F/E/^D/ E/F/G/c/ B/G/A/F/ | G/^F/E/^D/ E/F/G/A/ G/E/F/D/ | E/^F/G/E/ ^D/E/G/E/ F/D/E/^C/ | %93
 ^D/c/B/A/ G/A/B/c/ TG2 | EG G/A/G GG | _BG G/A/G G/B/A/G/ | FF F/G/F FF | dF F/G/F F/A/G/F/ | %98
 E/B,/C/E/ G,/B,/C/E/ G,/B,/C/E/ | F/B,/C/F/ G,/B,/C/F/ G,/B,/C/F/ | %100
 G/B,/C/G/ G,/B,/C/G/ G,/B,/C/G/ | A,/G,/A,/G/ A,/G,/A,/G/ A,/G,/A,/G/ | %102
 A,/G,/A,/F/ A,/G,/A,/F/ A,/G,/A,/F/ | B,/A,/B,/F/ B,/A,/B,/F/ B,/A,/B,/F/ | %104
 C/B,/C/E/ C/B,/C/E/ C/B,/C/E/ | C/B,/C/_E/ C/B,/C/E/ C/B,/C/A/ | B,/D/F/_A/ F/D/B,/G,/ z2 | %107
[Q:1/4=80] Mc2 _E2 z [DGB] | Mc>d Pe3 !tenuto!c | c[Q:1/4=100]e Aa g/e/f/d/ | %110
 e/d/c/B/ c/B/c/f/ B/e/A/d/ | ^G/d/B/G/ d/B/G/B/ E/d/c/B/ | c/B/A/^G/ A/B/c/F/ B/E/A/B/ | %113
 ^GE GB GE | A/g/e/^c/ g/e/c/e/ A/G/^F/E/ | ^Fd ^fa fd | g/f/d/B/ f/d/B/d/ G/f/e/d/ | %117
 e/d/c/B/ A/c/d/^f/ g/B/c/A/ | B/d/e/f/ g/A/_B/G/ g/A/B/G/ | A/c/d/e/ f/G/A/F/ f/G/A/F/ | %120
 G/E/G/B/ e/F/G/E/ e/F/G/E/ | F/D/F/A/ d/E/F/D/ d/E/F/D/ | E/D/C/B,/ C/^G,/A,/E/ D/B,/C/A,/ | %123
 B,/D/B,/^G,/ D/B,/G,/B,/ E,/D/C/B,/ | C/A,/^C/E/ G/E/C/E/ A,/G/F/E/ | %125
 F/A,/D/F/ A/^F/^D/F/ B,/A/^G/F/ | ^G/E/G/B/ d/B/G/B/ E/d/c/B/ | ce Aa g/e/f/d/ | %128
 b/a/^g/^f/ g/f/g/b/ e/g/a/^B/ | d/f/c/f/ B/f/c/f/ B/f/A/f/ | ^G/B/e/E/ A/c/f/E/ G/B/d/E/ | %131
 c4 F/E/F/c/ | B4 E/D/E/_B/ | A2 F/E/F/A/ ^G/B/A/c/ | B/c/d/B/ ^G/E/F/D/ E/C/D/B,/ | %135
 C/E/A/^G/ A/D/E/C/ D/B,/C/A,/ | ^G,/E/B/A/ B/E/F/D/ E/C/D/B,/ | C/D/E/B,/ CD CB, | %138
[K:bass] A,/B,/C/^G,/ A,/E,/F,/B,/ E,/A,/D,/G,/ | C,/E,/A,- A,^G, A,/C/B,/D/ | %140
 ^G,/B,/D/F/ D/B,/^G,/B,/ E,/D/C/B,/ |[K:treble] C/E/A- A^G A/c/B/d/ | %142
 ^G/B/d/f/ d/B/G/B/ E/d/c/B/ | c/e/a- a^g a/c'/b/a/ | ^g/^f/g/b/ a/g/a/c'/ g/f/g/b/ | %145
 ^f/e/f/a/ =f/e/f/b/ e/d/e/a/ | d/c/d/^g/ e/d/e/a/ d/c/d/g/ | c/B/c/^f/ d/c/d/^g/ c/B/c/f/ | %148
 B/A/B/e/ d/B/c/A/ B/^G/A/^F/ | ^G/^F/G/B/ E/^D/E/G/ =D/C/D/=F/ | B,/A,/B,/D/ z4 | z6 | z6 | z6 | %154
[I:staff +1] F/E/D/C/ B,/A,/^G,/^F,/[I:staff -1] z2 | z e Aa g/e/f/d/ | %156
 e/B/c/^G/ A/c/f/d/ e/c/d/B/ | c/B/c/^G/ A/c/e/c/ d/B/c/A/ | B/A/B/^G/ A/G/A/f/ e/c/d/B/ | %159
 c/B/A/^G/ A/B/c/f/ e/c/d/B/ | c/B/A/^G/ A/B/c/d/ c/A/B/G/ | A/B/c/A/ ^G/A/c/A/ B/G/A/^F/ | %162
 ^G/F/E/D/ C/B,/C/A/ B,/A/B,/G/ | A6 |] %164
V:2
 z6 | z E A,A G/E/F/D/ | E[K:bass]E, ^G,B, G,E, | A,E, A,,A, G,/E,/F,/D,/ | %4
 E,/D,/B,,/^G,,/ D,/B,,/G,,/B,,/ E,,/D,/C,/B,,/ | ^C,A,, C,E, C,A,, | %6
 D,/C/A,/^F,/ C/A,/F,/A,/ D,/C/B,/A,/ | B,G, B,D B,G, | CG, C,C B,/G,/A,/^F,/ | G,F, E,D, E,C, | %10
 F,E, D,C, D,B,, | E,D, ^C,B,, C,A,, | D,C, B,,A,, B,,G,, | C,G,, C,,C, B,,/^G,,/A,,/^F,,/ | %14
 ^G,,E,, G,,B,, G,,E,, | A,,A,, ^C,E, C,A,, | D,F,/E,/ ^D,^F, D,B,, | E,,E, ^G,B, G,E, | %18
 z/ D/C/B,/ C/B,/C/E/ ^C/E/D/F/ | ^G,B, E,E D/B,/C/A,/ | B,A, ^G,A, B,^B, | DD, C,C B,E, | %22
 A,,A,- A,/G,/^E,/=E,/ D,/^B,,/D,/D,,/ | G,,G,- G,/^E,/=E,/D,/ C,/_B,,/C,/C,,/ | %24
 F,,A,, D,,D,/C,/ B,,/^G,,/A,,/^F,,/ | ^G,,2 z B,, G,,E,, | A,,2 z C, B,,A,, | E,2 z E, ^F,^G, | %28
 A,>^G, A,/E,/F,/D,/ E,/C,/D,/B,,/ | C,/D,/E,/B,,/ C,D, C,B,, | %30
 A,,>^G,, A,,/E,,/B,,/E,,/ C,/E,,/D,/E,,/ | E,2 z4 | A,>G, A,/E,/B,/E,/ C/E,/D/E,/ | EE, z4 | %34
[K:treble] A>^G A/E/B/E/ c/E/d/E/ | eE eE dE | cE dE cE | BE cE BE | AE BE AE | %39
 ^GE z E/C/ D/B,/C/A,/ |[K:bass] B,/A,/B,/D/ ^G,/^F,/G,/B,/ =F,/E,/F,/A,/ | %41
 D,/C,/D,/F,/ B,,/A,,/B,,/D,/ ^G,,/^F,,/G,,/B,,/ | z/ D,/C,/B,,/ =F,/D,/C,/B,,/ ^G,/D,/C,/B,,/ | %43
 B,/=F,/E,/D,/ ^G,/F,/E,/D,/ B,/F,/E,/D,/ | D/^G,/^F,/E,/ B,/G,/F,/E,/ D/B,/A,/G,/ | %45
 z4 E,/D,/C,/B,,/ | z2 z C DB, | CC, z D CB, | A,2 z C B,A, | ^G,E, z A, A,^G, | %50
 A,E, A,,A, G,/E,/F,/D,/ | E,/D,/C,/E,/ A,,/C,/F,/D,/ E,/C,/D,/B,,/ | %52
 C,/B,,/A,,/C,/ E,,/A,,/E,/C,/ D,/B,,/C,/A,,/ | B,,/A,,/B,,/^G,,/ A,,D, E,E,, | %54
 A,,2 z/ A,,/C,/E,/ A,/G,/^E,/=E,/ | D,2 z/ G,,/B,,/D,/ G,/F,/E,/D,/ | %56
 C,2 z/ C,/E,/G,/ C/B,/A,/G,/ | ^F,2 z/ B,,/^D,/F,/ B,/A,/G,/F,/ | %58
 E,/^D,/E,/^F,/ G,/F,/G,/A,/ B,/G,/A,/^F,/ | G,B, E,E D/B,/C/A,/ | B,B,, ^D,^F, D,B,, | %61
 E,E,, z/ E,,/G,,/B,,/ E,/D,/C,/B,,/ | A,,2 z/ D,,/^F,,/A,,/ D,/C,/B,,/A,,/ | %63
 G,,2 z/ G,,/B,,/D,/ G,/^F,/E,/D,/ | ^C,2 z/ ^F,,/^A,,/C,/ ^F,/E,/D,/C,/ | %65
 B,,2 z/ B,,/D,/^F,/ B,/A,/^G,/F,/ | E,E,, ^G,,B,, G,,E,, | A,,2 z/ A,,/C,/E,/ A,/G,/^F,/E,/ | %68
 D,D,, ^F,,A,, F,,D,, | G,,G, G,/A,/G, G,G, | A,,G, G,/A,/G, G,G, | B,,G, G,/A,/G, G,G, | %72
 ^B,,G, G,/A,/G, G,G, | ^B,,A, A,/B,/A, A,A, | D,A, A,/B,/A, A,A, | D,B, B,/C/B, B,B, | %76
 D,^C C/D/C CC | D,D/=C/ B,A, B,G, | ^B,,C/B,/ A,G, A,^F, | %79
 B,/B,,/D,/^F,/ B,/F,/^G,/E,/ B,/F,/G,/E,/ | A,/A,,/C,/E,/ A,/E,/^F,/D,/ A,/E,/F,/D,/ | %81
 G,B, E,E D/B,/C/A,/ | B,2 z4 | B,,2 z4 | B,,2 z4 | z B,, ^D,^F, D,B,, | E,,2 z E, A,^F, | %87
 G,G,, z A, G,^F, | E,2 z G, ^F,E, | ^D,B,, C,A,, [B,,E,][B,,D,] | E,,B, E,E D/B,/C/A,/ | %91
 B,/A,/G,/B,/ E,/G,/C/A,/ B,/G,/A,/^F,/ | G,/^F,/E,/G,/ B,,/E,/B,/G,/ A,/F,/G,/E,/ | %93
 ^F,/E,/F,/^D,/ E,A, B,B,, | E,2 z/ E,,/G,,/B,,/ E,/D,/^C,/B,,/ | %95
 A,,2 z/ A,,/^C,/E,/ A,/G,/F,/E,/ | D,2 z/ D,,/F,,/A,,/ D,/C,/B,,/A,,/ | %97
 G,,2 z/ G,,/B,,/D,/ G,/^E,/=E,/D,/ | C,C, C,/D,/C, C,C, | D,,C, C,/D,/C, C,C, | %100
 E,,C, C,/D,/C, C,C, | F,,C, C,/D,/C, C,C, | F,,D, D,/E,/D, D,D, | G,,D, D,/E,/D, D,D, | %104
 G,,E, E,/F,/E, E,E, | G,,^F, ^E,/G,/F, F,F, | G,,2 z2 F,/D,/B,,/G,,/ | z2 A,2 z =F,, | %108
 E,,F,, G,,F,, G,,2 | C,, z z4 |[K:treble] z EA,A G/E/F/D/ | E[K:bass]E, ^G,B, G,E, | %112
 A,E, A,,A, G,/E,/F,/D,/ | E,/D,/B,,/^G,,/ D,/B,,/G,,/B,,/ E,,/D,/C,/B,,/ | ^C,A,, C,E, C,A,, | %115
 D,/C/A,/^F,/ C/A,/F,/A,/ D,/C/B,/A,/ | B,G, B,D B,G, | CG, C,C B,/G,/A,/^F,/ | G,F, E,D, E,C, | %119
 F,E, D,C, D,B,, | E,D, ^C,B,, C,A,, | D,C, B,,A,, B,,G,, | C,G,, C,,C, B,,/^G,,/A,,/^F,,/ | %123
 ^G,,E,, G,,B,, G,,E,, | A,,A,, ^C,E, C,A,, | D,F,/E,/ ^D,^F, D,B,, | E,,E, ^G,B, G,E, | %127
 z/ D/C/B,/ C/B,/C/E/ ^C/E/D/^E/ | ^G,B, E,E D/B,/C/A,/ | B,A, ^G,A, B,C | DD, C,C B,E, | %131
 A,,A,- A,/G,/F,/E,/ D,/C,/D,/D,,/ | G,,G,- G,/F,/E,/D,/ C,/_B,,/C,/C,,/ | %133
 F,,A,, D,,D,/C,/ B,,/^G,,/A,,/^F,,/ | ^G,,2 z B,, G,,E,, | A,,2 z C, B,,A,, | E,2 z E, ^F,^G, | %137
 A,>^G, A,/E,/F,/D,/ E,/C,/D,/B,,/ | C,/D,/E,/B,,/ C,D, C,B,, | %139
 A,,>^G,, A,,/E,,/B,,/E,,/ C,/E,,/D,/E,,/ | E,2 z4 | A,>^G, A,/E,/B,/E,/ C/E,/D/E,/ | EE, z4 | %143
[K:treble] A>^G A/E/B/E/ c/E/d/E/ | eE eE dE | cE dE cE | BE cE BE | AE BE AE | %148
 ^GE z[K:bass] E/C/ D/B,/C/A,/ | B,/A,/B,/D/ ^G,/^F,/G,/B,/ =F,/E,/F,/A,/ | %150
 D,/C,/D,/F,/ B,,/A,,/B,,/D,/ ^G,,/^F,,/G,,/B,,/ | z/ D,/C,/B,,/ =F,/D,/C,/B,,/ ^G,/D,/C,/B,,/ | %152
 B,/=F,/E,/D,/ ^G,/F,/E,/D,/ B,/F,/E,/D,/ | D/^G,/^F,/E,/ B,/G,/F,/E,/ D/B,/A,/G,/ | %154
 z4 E,/D,/C,/B,,/ | z2 z C DB, | CC, z D CB, | A,2 z C B,A, | ^G,E, ^E,D, =E,E, | %159
 A,E, A,,A, G,/E,/F,/D,/ | E,/D,/C,/E,/ A,,/C,/F,/D,/ E,/C,/D,/B,,/ | %161
 C,/B,,/A,,/C,/ E,,/A,,/E,/C,/ D,/B,,/C,/A,,/ | B,,/A,,/B,,/^G,,/ A,,D, E,E,, | A,,6 |] %164
V:3
 x6 | x6 | x[K:bass] x5 | x6 | x6 | x6 | x6 | x6 | x6 | x6 | x6 | x6 | x6 | x6 | x6 | x6 | x6 | %17
 x6 | A,4 x2 | x6 | x6 | x6 | x6 | x6 | x6 | x6 | x6 | x6 | x6 | x6 | x3/2 B,,/ C,D, E,F, | %31
 E,E,, x4 | x6 | x6 |[K:treble] x6 | x6 | x6 | x6 | x6 | x6 |[K:bass] x6 | x2 ^G,/^F,/G,/B,/ E, z | %42
 E,,2 z2 z2 | E,,2 z2 z2 | E,,2 z2 z2 | x6 | A,,2 z A, B,G, | x6 | x6 | x2 F,D, E,E, | x6 | x6 | %52
 x6 | x6 | x6 | x6 | x6 | x6 | x6 | x6 | x6 | x6 | x6 | x6 | x6 | x6 | x6 | x6 | x6 | x6 | x6 | %71
 x6 | x6 | x6 | x6 | x6 | x6 | x6 | x6 | x6 | x6 | x6 | x6 | x6 | x6 | x6 | x6 | x6 | x6 | x6 | %90
 E, x5 | x6 | x6 | x6 | x6 | x6 | x6 | x6 | x6 | x6 | x6 | x6 | x6 | x6 | x6 | x6 | x6 | %107
 x2 ^F,,2 x2 | x6 | x6 |[K:treble] x6 | x[K:bass] x5 | x6 | x6 | x6 | x6 | x6 | x6 | x6 | x6 | x6 | %121
 x6 | x6 | x6 | x6 | x6 | x6 | A,6 | x6 | x6 | x6 | x6 | x6 | x6 | x6 | x6 | x6 | x6 | x6 | %139
 x3/2 B,,/ C,D, E,F, | E,E,, x4 | x6 | x6 |[K:treble] x6 | x6 | x6 | x6 | x6 | x3[K:bass] x3 | x6 | %150
 x2 ^G,/^F,/G,/B,/ E, z | E,,2 z2 z2 | E,,2 z2 z2 | E,,2 z2 z2 | x6 | A,,2 x A, B,G, | x6 | x6 | %158
 x2 z A, A,^G, | x6 | x6 | x6 | z4 E,2 | x6 |] %164
V:4
 x6 | x6 | x6 | x6 | x6 | x6 | x6 | x6 | x6 | x6 | x6 | x6 | x6 | x6 | x6 | x6 | x6 | x6 | x6 | %19
 x6 | x6 | x6 | x/ c/A/G/ F/E/D/E/ z2 | z/ A/G/F/ E/D/C/D/ z2 | z/ G/F/E/ z4 | x6 | x6 | x6 | x6 | %29
[K:bass] x6 | x6 | x6 |[K:treble] x6 | x6 | z z/ B/ cd ef | x6 | x6 | x6 | x6 | x6 | x6 | x6 | x6 | %43
 x6 | x6 | x6 | x6 |[I:staff +1] C2[I:staff -1] z A A^G | A z z A ^GE | D2 CB, CB, | %50
[I:staff +1] A, x5 | x6 | x6 | x6 |[I:staff -1] z C CC CC | CB, B,B, B,B, | CE EE EE | E^D DD DD | %58
 E z z4 | x6 | x6 | z[I:staff +1] G, G,G, G,G, | G,^F, F,F, F,F, | G,B, B,B, B,B, | %64
 B,^A, A,A, A,A, | B,/ x7/2[I:staff -1] z B | B/ x3/2 z4 | x4 z A | A/ z/ z z4 | x6 | x6 | x6 | %72
 x6 | x6 | x6 | x6 | x6 | x6 | x6 | z B BB BB | BA AA AA | B/ z/ z z4 | x6 | x6 | x6 | x6 | %86
 z2 z[I:staff +1] G, ^F,=D, | G,2[I:staff -1] z[I:staff +1] E E^D | %88
 E[I:staff -1] z z[I:staff +1] E ^DB, | A,2 G,^F, G,F, | x6 | x6 | x6 |[I:staff -1] z4 ^D2 | %94
 EE EE EE | GE EE E z | z D DD DD | FD DD D z | x6 | x6 | x6 | x6 | x6 | x6 | x6 | x6 | x6 | %107
 x2 C2 x2 | G2 B4 | x6 | x6 | x6 | x6 | x6 | x6 | x6 | x6 | x6 | x6 | x6 | x6 | x6 | x6 | x6 | x6 | %125
 x6 | x6 | x6 | x6 | x6 | x6 | z/ B/A/G/ F/E/D/E/ x2 | z/ A/G/F/ E/D/C/D/ x2 | z/ G/F/E/ x4 | x6 | %135
 x6 | x6 | x6 |[K:bass] x6 | x6 | x6 |[K:treble] z z/ B,/ CD EF |[I:staff +1] E2[I:staff -1] z4 | %143
 z z/ B/ cd ef | x6 | x6 | x6 | x6 | x6 | x6 | x6 | x6 | x6 | x6 | x6 | x3[I:staff +1] C DB, | %156
 C2[I:staff -1] z A A^G | A z z A ^GE | D2 CB, CB, |[I:staff +1] A, x5 | x6 | x6 | x6 | x6 |] %164
V:5
 x6 | x6 | x6 | x6 | x6 | x6 | x6 | x6 | x6 | x6 | x6 | x6 | x6 | x6 | x6 | x6 | x6 | x6 | x6 | %19
 x6 | x6 | x6 | x6 | x6 | x6 | x6 | x6 | x6 | x6 |[K:bass] x6 | x6 | x6 |[K:treble] x6 | x6 | x6 | %35
 x6 | x6 | x6 | x6 | x6 | x6 | x6 | x6 | x6 | x6 | x6 | x6 | x6 | x6 | x6 | x6 | x6 | x6 | x6 | %54
 x6 | x6 | x6 | x6 | x6 | x6 | x6 | x6 | x6 | x6 | x6 | x5 ^F | ^G/ x11/2 | x4 z E | ^F/ z/ z z4 | %69
 x6 | x6 | x6 | x6 | x6 | x6 | x6 | x6 | x6 | x6 | x6 | x6 | x6 | x6 | x6 | x6 | x6 | x6 | x6 | %88
 x6 | x6 | x6 | x6 | x6 | x6 | x6 | ^C z z4 | x6 | B z z4 | x6 | x6 | x6 | x6 | x6 | x6 | x6 | x6 | %106
 x6 | x6 | x6 | x6 | x6 | x6 | x6 | x6 | x6 | x6 | x6 | x6 | x6 | x6 | x6 | x6 | x6 | x6 | x6 | %125
 x6 | x6 | x6 | x6 | x6 | x6 | x6 | x6 | x6 | x6 | x6 | x6 | x6 |[K:bass] x6 | x6 | x6 | %141
[K:treble] x6 | x6 | x6 | x6 | x6 | x6 | x6 | x6 | x6 | x6 | x6 | x6 | x6 | x6 | x6 | x6 | x6 | %158
 x6 | x6 | x6 | x6 | x6 | x6 |] %164

